X:1
T:’Twas in the Moon of Wintertime
T:’Twas in the Moon of Wintertime
T:Jean de Brebeuf, ca. 1643
T:Courtesy of the Cyber Hymnal™
Z:Courtesy of the Cyber Hymnal™
%%score ( 1 2 ) 3
L:1/8
Q:1/4=98
M:2/4
K:Bb
V:1 treble 
V:2 treble 
V:3 bass 
V:1
 [B,D] | GA Bc | BA GF | GG [B,A][A,F] | (z2 [B,D]) x | GA Bc | BA GF | GB AF | [B,G]2 z G | %9
w: 1.~’Twas|in the moon of|win- ter- time, When|all the birds had||fled, That might- y|Git- chi Man- i-|tou Sent an- gel|choirs in-|
w: 2.~With-|in a lodge of|brok- en bark The|ten- der babe was||found, A rag- ged|robe of rab- bit|skin En- wrapped His|beau- ty|
w: 3.~The|ear- liest moon of|win- ter- time Is|not so round and||fair As was the|ring of glo- ry|on The help- less|In- fant|
w: 4.~O|child- ren of the|for- est free, O|seed of Man- i-||tou, The ho- ly|Child of earth and|heav’n Is born to-|day for|
 dd AB | c>B [FA][EA] | BA G[CG] | AG (GF) ||"^Refrain" [CD][B,G] [A,G]2 | FE D2 | [B,G]2 FD | %16
w: stead; Be- fore their|light the stars grew|dim, And won- dering|hunt- ers heard *|the hymn: *|||
w: round; But as the|hunt- er braves drew|nigh, The an- gel|song rang loud *|and high: *|||
w: there. The chiefs from|far be- fore Him|knelt With gifts of|fox and beav- *|er pelt. Je-|sus your king|is born, Je-|
w: you. Come kneel be-|fore the ra- diant|Boy, Who brings you|beau- ty, peace *|and joy. *|||
 GG/A/ Bc | [Cd]2 D2 | [B,G]3 |] %19
w: |||
w: |||
w: sus is born, In ex-|cel- sis|glo-|
w: |||
V:2
 x | G2 F2 | E2 D2 | C2 x2 | G3 B, | C2 E2 | D2 D2 | D2 C2 | x4 | F2 F2 | G2 x2 | D3 x | B,2 C2 || %13
 x4 | A,2 (DC) | x2 D2 | E2 D2 | x2 (B,A,) | x3 |] %19
V:3
 [D,F,] | G,2 G,2 | C,2 D,2 | E,2 D,2 | ([G,B,]2 F,)F, | E,2 C,2 | G,2 B,,2 | E,2 D,2 | G,2 G,, z | %9
 B,,2 D,2 | E,2 F,2 | B,,2 E,2 | C,2 A,,2 || B,,2 C,2 | D,2 D,2 | E,2 D,2 | C,2 B,,2 | A,,2 D,2 | %18
 [G,,G,]3 |] %19

